X: 21762
T: King Of The Fairies
R: hornpipe
M: 4/4
K: Dmixolydian
B2|:"Em"EDEF GFGA|B2 B2 "G"G3 A|"Em"B2 E2 EFGE|"D"FGFE D3 B|
"Em"EDEF GFGA|BAGB "G"d3 c|"Em"B2 E2 "D"GFED|"Em"E2 ED E2 B2:|
"Em"e2 e2 Bdef|"G"gagf "Em"e3 f|e2 B2 BAB^c|"D"ded^c BcdB|
"Em"e2 e2 Bdef|"G"gagf "Em"efed|Bdeg "D"fedf|"Em"e2 ed e3 f|
"G"g2 ge "D"f2 fd|"Em"edB^c"D"d3 e|"Em"dBAF "G"GAB^c|"D"dBAF "Em"GFED|
B2 E2 EFGA|"G"B2 e2 "Em"edef|e2 B2 "D"BAGF|"Em"E2 ED E4||

